symbols/web/science/materialsymbolssharp/science_wght200fill1_24px.svg

<svg xmlns="http://www.w3.org/2000/svg" height="24" width="24"><path d="M5 20q-.625 0-.9-.575t.125-1.05L10 11.35V5H8.125V4h7.75v1H14v6.35l5.775 7.025q.4.475.125 1.05-.275.575-.9.575Z"/></svg>

<svg xmlns="http://www.w3.org/2000/svg" height="24" width="24"><path d="M5 20Q4.375 20 4.1 19.425Q3.825 18.85 4.225 18.375L10 11.35V5H8.125V4H15.875V5H14V11.35L19.775 18.375Q20.175 18.85 19.9 19.425Q19.625 20 19 20Z"/></svg>
